X: 596
T: Dîl-i Mahzunumu Şâdeyle...
C: Tanburî Ali Efendi
O: Turkey
F: http://compmusic.upf.edu/node/140
N: suzinak-zirgule--sarki--evfer--dil-i_mahzununu--tanburi_ali_efendi
N: makam= suzinak-zirgule
N: form= sarki
N: usul= evfer = 9/8
M: 9/8
L: 1/16
K: C _1/4B _7/8e _7/8A ^f
Q: 1/4=108
%%MIDI tuningsystem comma53
c2d4f2 e3/2g/fe d2fe dc | {c}B3/2A/ BGc3/2B/ cde3/2d/ egfe d4  | 
w:  Dîl_ i *  mah *  *  *  zu  |  *  nu *  *  *  mu  *  *  *  şâd_ *  *  *  ey  | 
z2cd c2B2 cdcB c4 Bc | dB cdec defg =a_bag fe{f}e3/2d/  | 
w:  le  *  *  *  *  *  *  *  bir  gün    |  *  *  *  *  *  *  *  *  SAZ  | 
d2z2 fg3 (3gfe(3def ef2e/d/ gf | g/f/e2de2 edg3/2f/ edc3/2B/ c4  | 
w:  *  No lur  zâ *  *  *  *  *  lim   |  *  *  *  *  be ni  *  yâd_ *  *  *  ey  | 
z2Bc defg (3gfedc (3cBcB2 AG | G3gfe dc(3BBA (3AAGG4z2  | 
w:  le  *  *  *  *  *  *  *  *  *  *  *  *  *  bir   |  gün    | 
c2_1/4e6 =fgfe f2g4 | (3g=fg =af(3f_1/4ef geed {f}edd4z2  | 
w:  Yı kıl mış  *  *  *  kal  |  bi  *  *  *  *  â *  *  *  *  bâd_ *  *  *  *  ey  | 
z2de d2c2 _B2=A2 Add3/2c/ B_7/8A | \
w:  le  *  *  *  *  *  *  *  bir   | 
G3=A_7/8B3/2^c/ dee3/2d/ ced4z2  | 
w:  gün   *  *  *  *  *  SAZ  | 
d2g6 =agfg a4 c'2 | c'_b bgf2 ede3/2d/ egfe d4  | 
w:  Yı kıl mış  *  *  *  kal  |  bi *  *  *  â *  *  bâd_ *  *  *  ey  | 
z2cd c2B2 cdcB c4 Bc | dB cdec defg =a_bag fe{f}e3/2d/  | 
w:  le  *  *  *  *  *  *  *  bir  gün    |   | 
d2z2 fg3 (3gfe(3def ef2e/d/ gf | g/f/e2de2 edg3/2f/ edc3/2B/ c4  | 
w:  *  No lur  zâ *  *  *  *  *  lim   |  *  *  *  *  be ni  *  yâd_ *  *  *  ey  | 
z2Bc defg (3gfedc (3cBcB2 AG | G3gfe dc(3BBA (3AAGG4z2  | 
w:  le  *  *  *  *  *  *  *  *  *  *  *  *  *  bir   |  gün    | 
|


